; generated by Slic3r 0.9.8 on 2013-02-17 at 21:19:53

; layer_height = 0.29
; perimeters = 2
; top_solid_layers = 3
; bottom_solid_layers = 2
; fill_density = 0.25
; perimeter_speed = 500
; infill_speed = 500
; travel_speed = 500
; scale = 1
; nozzle_diameter = 0.5
; filament_diameter = 3.05
; extrusion_multiplier = 0.9
; perimeters extrusion width = 0.73mm
; infill extrusion width = 0.73mm
; first layer extrusion width = 0.72mm

M107
M190 S58 ; wait for bed temperature to be reached
M104 S190 ; set temperature
G28 ; home all axes
M109 S190 ; wait for temperature to be reached
G90 ; use absolute coordinates
G21 ; set units to millimeters
G92 E0
M82 ; use absolute distances for extrusion
G1 F1800.000 E-1.00000
G92 E0
G1 Z1.5 F30000.000
G1 X78.118 Y140.038
G1 F1800.000 E1.00000
G1 X79.166 Y141.493 F50000.000 E1.04337
G1 X79.554 Y143.291 E1.08784
G1 X79.166 Y145.087 E1.13229
G1 X78.118 Y146.542 E1.17567
G1 X76.587 Y147.507 E1.21943
G1 X74.740 Y147.856 E1.26489
G1 X72.894 Y147.507 E1.31034
G1 X71.364 Y146.542 E1.35410
G1 X70.315 Y145.087 E1.39747
G1 X69.928 Y143.291 E1.44192
G1 X70.315 Y141.493 E1.48639
G1 X71.364 Y140.038 E1.52977
G1 X72.894 Y139.073 E1.57353
G1 X74.740 Y138.724 E1.61897
G1 X76.587 Y139.073 E1.66444
G1 X78.032 Y139.984 E1.70574
G1 X78.118 Y140.038 E1.70820
G1 X77.645 Y140.541 F50000.000
G1 X78.534 Y141.774 F50000.000 E1.74497
G1 X78.861 Y143.290 E1.78249
G1 X78.534 Y144.806 E1.81998
G1 X77.645 Y146.039 E1.85675
G1 X76.335 Y146.866 E1.89422
G1 X74.740 Y147.167 E1.93347
G1 X73.146 Y146.866 E1.97271
G1 X71.836 Y146.039 E2.01017
G1 X70.947 Y144.806 E2.04695
G1 X70.620 Y143.291 E2.08444
G1 X70.947 Y141.774 E2.12196
G1 X71.836 Y140.541 E2.15873
G1 X73.146 Y139.715 E2.19619
G1 X74.740 Y139.413 E2.23543
G1 X76.335 Y139.715 E2.27469
G1 X77.559 Y140.487 E2.30969
G1 X77.645 Y140.541 E2.31215
G1 X78.305 Y140.387 F50000.000
G1 F1800.000 E1.31215
G92 E0
G1 X84.460 Y128.398 F50000.000
G1 F1800.000 E1.00000
G1 X83.197 Y127.597 F50000.000 E1.03617
G1 X82.174 Y126.506 E1.07234
G1 X81.453 Y125.196 E1.10850
G1 X81.081 Y123.748 E1.14468
G1 X81.081 Y122.252 E1.18084
G1 X81.453 Y120.804 E1.21701
G1 X82.174 Y119.494 E1.25318
G1 X83.197 Y118.403 E1.28935
G1 X84.460 Y117.602 E1.32552
G1 X85.882 Y117.140 E1.36169
G1 X87.375 Y117.046 E1.39786
G1 X88.843 Y117.326 E1.43403
G1 X90.197 Y117.963 E1.47019
G1 X91.349 Y118.916 E1.50636
G1 X92.228 Y120.126 E1.54253
G1 X92.778 Y121.516 E1.57870
G1 X92.966 Y123.000 E1.61487
G1 X92.778 Y124.484 E1.65104
G1 X92.228 Y125.874 E1.68721
G1 X91.349 Y127.084 E1.72337
G1 X90.197 Y128.037 E1.75954
G1 X88.843 Y128.674 E1.79571
G1 X87.375 Y128.954 E1.83188
G1 X85.882 Y128.860 E1.86805
G1 X84.557 Y128.429 E1.90176
G1 X84.460 Y128.398 E1.90422
G1 X83.888 Y128.761 F50000.000
G1 F1800.000 E0.90422
G92 E0
G1 X109.522 Y141.642 F50000.000
G1 F1800.000 E1.00000
G1 X110.622 Y140.110 F50000.000 E1.04561
G1 X112.229 Y139.093 E1.09162
G1 X114.171 Y138.724 E1.13944
G1 X116.113 Y139.093 E1.18724
G1 X117.720 Y140.110 E1.23325
G1 X118.820 Y141.642 E1.27886
G1 X119.226 Y143.532 E1.32562
G1 X118.820 Y145.422 E1.37237
G1 X117.720 Y146.954 E1.41797
G1 X116.113 Y147.971 E1.46398
G1 X114.171 Y148.340 E1.51178
G1 X112.229 Y147.971 E1.55960
G1 X110.622 Y146.954 E1.60560
G1 X109.522 Y145.422 E1.65121
G1 X109.116 Y143.532 E1.69796
G1 X109.501 Y141.742 E1.74226
G1 X109.522 Y141.642 E1.74472
G1 X110.155 Y141.923 F50000.000
G1 X111.095 Y140.612 F50000.000 E1.78374
G1 X112.482 Y139.734 E1.82344
G1 X114.171 Y139.413 E1.86503
G1 X115.860 Y139.734 E1.90660
G1 X117.247 Y140.612 E1.94630
G1 X118.187 Y141.923 E1.98532
G1 X118.533 Y143.532 E2.02514
G1 X118.187 Y145.142 E2.06497
G1 X117.247 Y146.452 E2.10398
G1 X115.860 Y147.330 E2.14367
G1 X114.171 Y147.651 E2.18525
G1 X112.482 Y147.330 E2.22684
G1 X111.095 Y146.452 E2.26653
G1 X110.155 Y145.142 E2.30554
G1 X109.809 Y143.532 E2.34537
G1 X110.133 Y142.022 E2.38273
G1 X110.155 Y141.923 E2.38519
G1 X109.794 Y141.350 F50000.000
G1 F1800.000 E1.38519
G92 E0
G1 X108.569 Y160.724 F50000.000
G1 F1800.000 E1.00000
G1 X104.007 Y162.081 F50000.000 E1.11513
G1 X99.460 Y162.946 E1.22708
G1 X94.926 Y163.287 E1.33706
G1 X90.400 Y163.070 E1.44664
G1 X85.877 Y162.259 E1.55779
G1 X81.348 Y160.816 E1.67274
G1 X75.894 Y158.277 E1.81828
G1 X75.856 Y158.342 E1.82010
G1 X70.157 Y154.822 E1.98210
G1 X66.035 Y151.547 E2.10943
G1 X62.497 Y147.917 E2.23204
G1 X59.530 Y143.934 E2.35218
G1 X57.120 Y139.597 E2.47219
G1 X55.259 Y134.904 E2.59429
G1 X53.940 Y129.853 E2.72055
G1 X53.323 Y125.582 E2.82492
G1 X80.893 Y125.582 E3.49176
G1 X81.622 Y126.908 E3.52834
G1 X82.762 Y128.122 E3.56864
G1 X84.169 Y129.015 E3.60895
G1 X85.754 Y129.530 E3.64926
G1 X87.417 Y129.635 E3.68956
G1 X89.054 Y129.323 E3.72987
G1 X90.562 Y128.613 E3.77018
G1 X91.846 Y127.551 E3.81048
G1 X92.826 Y126.203 E3.85079
G1 X93.071 Y125.582 E3.86693
G1 X136.480 Y125.582 E4.91685
G1 X135.757 Y129.075 E5.00310
G1 X134.605 Y133.734 E5.11919
G1 X133.121 Y138.269 E5.23460
G1 X131.146 Y142.644 E5.35069
G1 X128.510 Y146.847 E5.47070
G1 X126.913 Y148.845 E5.53257
G1 X125.078 Y150.801 E5.59743
G1 X122.993 Y152.696 E5.66558
G1 X120.637 Y154.527 E5.73776
G1 X117.986 Y156.287 E5.81473
G1 X113.878 Y158.619 E5.92896
G1 X108.664 Y160.686 E6.06464
G1 X108.569 Y160.724 E6.06710
G1 F1800.000 E5.06710
G92 E0
G1 X136.963 Y120.355 F50000.000
G1 F1800.000 E1.00000
G1 X92.998 Y120.232 F50000.000 E2.06338
G1 X92.826 Y119.797 E2.07468
G1 X91.846 Y118.449 E2.11499
G1 X90.562 Y117.387 E2.15529
G1 X89.054 Y116.677 E2.19560
G1 X87.417 Y116.365 E2.23591
G1 X85.754 Y116.470 E2.27622
G1 X84.169 Y116.985 E2.31652
G1 X82.762 Y117.878 E2.35683
G1 X81.622 Y119.092 E2.39713
G1 X81.014 Y120.198 E2.42765
G1 X52.916 Y120.119 E3.10725
G1 X52.679 Y57.184 E4.62946
G1 X53.114 Y55.540 E4.67061
G1 X53.726 Y53.972 E4.71131
G1 X54.497 Y52.572 E4.74999
G1 X55.439 Y51.342 E4.78744
G1 X56.566 Y50.282 E4.82486
G1 X57.901 Y49.392 E4.86367
G1 X59.469 Y48.677 E4.90536
G1 X61.220 Y48.173 E4.94943
G1 X70.119 Y48.173 E5.16468
G1 X69.614 Y26.189 E5.69654
G1 X70.089 Y24.044 E5.74967
G1 X70.852 Y22.212 E5.79769
G1 X71.845 Y20.712 E5.84119
G1 X73.023 Y19.524 E5.88166
G1 X74.348 Y18.631 E5.92031
G1 X75.785 Y18.023 E5.95805
G1 X77.293 Y17.692 E5.99540
G1 X78.830 Y17.635 E6.03259
G1 X80.350 Y17.847 E6.06972
G1 X81.808 Y18.320 E6.10680
G1 X83.159 Y19.047 E6.14389
G1 X84.359 Y20.019 E6.18125
G1 X85.372 Y21.231 E6.21945
G1 X86.157 Y22.686 E6.25944
G1 X86.677 Y24.387 E6.30246
G1 X86.885 Y26.389 E6.35115
G1 X87.139 Y47.912 E6.87176
G1 X102.281 Y48.192 E7.23806
G1 X102.027 Y25.892 E7.77748
G1 X102.212 Y24.061 E7.82199
G1 X102.714 Y22.502 E7.86161
G1 X103.496 Y21.158 E7.89921
G1 X104.519 Y20.023 E7.93616
G1 X105.747 Y19.103 E7.97328
G1 X107.141 Y18.408 E8.01095
G1 X108.652 Y17.950 E8.04916
G1 X110.235 Y17.743 E8.08775
G1 X111.837 Y17.794 E8.12653
G1 X113.408 Y18.108 E8.16528
G1 X114.902 Y18.693 E8.20409
G1 X116.276 Y19.550 E8.24325
G1 X117.492 Y20.691 E8.28358
G1 X118.512 Y22.130 E8.32624
G1 X119.294 Y23.891 E8.37285
G1 X119.781 Y25.955 E8.42414
G1 X119.276 Y48.443 E8.96819
G1 X129.376 Y48.177 E9.21258
G1 X130.844 Y48.667 E9.25001
G1 X132.262 Y49.338 E9.28795
G1 X133.506 Y50.153 E9.32392
G1 X134.581 Y51.118 E9.35886
G1 X135.490 Y52.242 E9.39384
G1 X136.235 Y53.543 E9.43009
G1 X136.813 Y55.039 E9.46887
G1 X137.200 Y56.686 E9.50980
G1 X136.963 Y120.253 E11.04732
G1 X136.963 Y120.355 E11.04977
G1 X137.641 Y120.019 F50000.000
G1 X137.637 Y121.034 F50000.000 E11.07433
G1 X94.371 Y120.913 E12.12082
G1 X94.634 Y123.000 E12.17171
G1 X94.394 Y124.905 E12.21816
G1 X137.311 Y124.905 E13.25621
G1 X136.417 Y129.225 E13.36289
G1 X135.256 Y133.920 E13.47989
G1 X133.753 Y138.514 E13.59679
G1 X131.745 Y142.964 E13.71489
G1 X129.063 Y147.239 E13.83694
G1 X127.425 Y149.289 E13.90040
G1 X125.553 Y151.284 E13.96657
G1 X123.429 Y153.215 E14.03600
G1 X121.032 Y155.077 E14.10942
G1 X118.340 Y156.865 E14.18757
G1 X115.005 Y158.757 E14.28032
G1 X122.536 Y171.876 E14.64619
G1 X121.404 Y172.846 E14.68225
G1 X113.725 Y159.408 E15.05661
G1 X108.791 Y161.364 E15.18500
G1 X104.167 Y162.739 E15.30168
G1 X99.549 Y163.619 E15.41539
G1 X94.935 Y163.965 E15.52730
G1 X90.324 Y163.744 E15.63895
G1 X85.714 Y162.918 E15.75224
G1 X81.102 Y161.449 E15.86931
G1 X76.167 Y159.151 E16.00098
G1 X68.689 Y171.934 E16.35918
G1 X67.372 Y171.111 E16.39675
G1 X74.872 Y158.530 E16.75102
G1 X69.768 Y155.377 E16.89614
G1 X65.581 Y152.050 E17.02548
G1 X61.981 Y148.357 E17.15022
G1 X58.960 Y144.302 E17.27253
G1 X56.507 Y139.887 E17.39470
G1 X54.615 Y135.115 E17.51886
G1 X53.275 Y129.987 E17.64704
G1 X52.541 Y124.905 E17.77124
G1 X79.669 Y124.905 E18.42739
G1 X79.426 Y123.957 E18.45107
G1 X79.426 Y122.043 E18.49736
G1 X79.727 Y120.871 E18.52662
G1 X52.242 Y120.794 E19.19140
G1 X52.001 Y57.098 E20.73205
G1 X52.470 Y55.329 E20.77629
G1 X53.111 Y53.684 E20.81900
G1 X53.929 Y52.200 E20.85998
G1 X54.935 Y50.887 E20.90000
G1 X56.143 Y49.751 E20.94011
G1 X57.570 Y48.798 E20.98161
G1 X59.234 Y48.040 E21.02582
G1 X61.124 Y47.496 E21.07341
G1 X69.427 Y47.496 E21.27422
G1 X68.935 Y26.123 E21.79130
G1 X69.441 Y23.839 E21.84787
G1 X70.252 Y21.892 E21.89889
G1 X71.317 Y20.282 E21.94557
G1 X72.589 Y19.000 E21.98927
G1 X74.024 Y18.033 E22.03112
G1 X75.579 Y17.375 E22.07196
G1 X77.208 Y17.018 E22.11229
G1 X78.864 Y16.956 E22.15239
G1 X80.503 Y17.184 E22.19240
G1 X82.076 Y17.695 E22.23240
G1 X83.535 Y18.481 E22.27250
G1 X84.836 Y19.534 E22.31299
G1 X85.935 Y20.850 E22.35443
G1 X86.785 Y22.423 E22.39770
G1 X87.343 Y24.252 E22.44394
G1 X87.562 Y26.350 E22.49497
G1 X87.808 Y47.247 E23.00044
G1 X101.596 Y47.502 E23.33398
G1 X101.350 Y25.862 E23.85744
G1 X101.545 Y23.921 E23.90461
G1 X102.092 Y22.225 E23.94773
G1 X102.946 Y20.757 E23.98880
G1 X104.060 Y19.521 E24.02904
G1 X105.390 Y18.525 E24.06924
G1 X106.890 Y17.776 E24.10978
G1 X108.509 Y17.286 E24.15071
G1 X110.201 Y17.064 E24.19197
G1 X111.915 Y17.119 E24.23344
G1 X113.599 Y17.456 E24.27500
G1 X115.207 Y18.085 E24.31676
G1 X116.691 Y19.011 E24.35906
G1 X118.004 Y20.244 E24.40263
G1 X119.103 Y21.793 E24.44857
G1 X119.939 Y23.674 E24.49835
G1 X120.460 Y25.884 E24.55326
G1 X119.968 Y47.747 E25.08221
G1 X129.478 Y47.497 E25.31229
G1 X131.097 Y48.038 E25.35358
G1 X132.594 Y48.746 E25.39363
G1 X133.920 Y49.615 E25.43198
G1 X135.073 Y50.650 E25.46946
G1 X136.051 Y51.859 E25.50706
G1 X136.848 Y53.251 E25.54587
G1 X137.461 Y54.839 E25.58703
G1 X137.877 Y56.609 E25.63101
G1 X137.641 Y119.917 E27.16227
G1 X137.641 Y120.019 E27.16472
G1 X137.053 Y120.355 F50000.000
G1 F51800.000 E26.16472
G92 E0
G1 X143.460 Y116.091 F50000.000
G1 F51800.000 E1.00000
G1 X143.030 Y114.862 F50000.000 E1.03149
G1 X143.030 Y70.203 E2.11166
G1 X143.422 Y68.949 E2.14344
G1 X144.031 Y67.710 E2.17683
G1 X144.814 Y66.579 E2.21010
G1 X145.748 Y65.577 E2.24322
G1 X146.806 Y64.726 E2.27608
G1 X147.963 Y64.043 E2.30857
G1 X149.192 Y63.550 E2.34058
G1 X150.466 Y63.262 E2.37219
G1 X151.765 Y63.193 E2.40365
G1 X153.069 Y63.359 E2.43543
G1 X154.364 Y63.779 E2.46836
G1 X155.638 Y64.478 E2.50350
G1 X156.875 Y65.483 E2.54207
G1 X158.055 Y66.830 E2.58537
G1 X159.150 Y68.549 E2.63467
G1 X160.059 Y70.513 E2.68702
G1 X159.820 Y115.060 E3.76448
G1 X159.069 Y116.769 E3.80964
G1 X158.116 Y118.271 E3.85265
G1 X157.053 Y119.457 E3.89120
G1 X155.902 Y120.355 E3.92650
G1 X154.682 Y120.989 E3.95975
G1 X153.413 Y121.381 E3.99187
G1 X152.110 Y121.544 E4.02363
G1 X150.795 Y121.491 E4.05548
G1 X149.490 Y121.231 E4.08764
G1 X148.225 Y120.777 E4.12016
G1 X147.028 Y120.141 E4.15295
G1 X145.925 Y119.339 E4.18593
G1 X144.946 Y118.386 E4.21898
G1 X144.116 Y117.298 E4.25207
G1 X143.509 Y116.180 E4.28285
G1 X143.460 Y116.091 E4.28530
G1 X142.839 Y116.366 F50000.000
G1 X142.353 Y114.977 F50000.000 E4.32090
G1 X142.353 Y70.100 E5.40635
G1 X142.791 Y68.697 E5.44190
G1 X143.446 Y67.366 E5.47777
G1 X144.286 Y66.153 E5.51345
G1 X145.286 Y65.080 E5.54892
G1 X146.420 Y64.167 E5.58414
G1 X147.663 Y63.434 E5.61906
G1 X148.989 Y62.902 E5.65362
G1 X150.373 Y62.589 E5.68793
G1 X151.790 Y62.514 E5.72226
G1 X153.217 Y62.696 E5.75705
G1 X154.633 Y63.155 E5.79305
G1 X156.017 Y63.913 E5.83122
G1 X157.346 Y64.994 E5.87266
G1 X158.598 Y66.423 E5.91860
G1 X159.746 Y68.223 E5.97024
G1 X160.737 Y70.366 E6.02734
G1 X160.496 Y115.204 E7.11185
G1 X159.668 Y117.088 E7.16164
G1 X158.658 Y118.681 E7.20725
G1 X157.517 Y119.954 E7.24862
G1 X156.269 Y120.927 E7.28687
G1 X154.940 Y121.618 E7.32310
G1 X153.556 Y122.046 E7.35815
G1 X152.139 Y122.223 E7.39269
G1 X150.714 Y122.165 E7.42717
G1 X149.309 Y121.885 E7.46183
G1 X147.951 Y121.398 E7.49674
G1 X146.668 Y120.717 E7.53186
G1 X145.488 Y119.858 E7.56717
G1 X144.438 Y118.836 E7.60261
G1 X143.546 Y117.667 E7.63816
G1 X142.888 Y116.455 E7.67152
G1 X142.839 Y116.366 E7.67398
G1 X143.253 Y115.830 F50000.000
G92 E0
G1 X41.273 Y63.607 F50000.000
G1 X42.547 Y64.305 F50000.000 E1.03513
G1 X43.784 Y65.311 E1.07369
G1 X44.964 Y66.658 E1.11700
G1 X46.060 Y68.376 E1.16630
G1 X46.969 Y70.340 E1.21865
G1 X46.730 Y114.887 E2.29612
G1 X45.978 Y116.596 E2.34128
G1 X45.026 Y118.098 E2.38429
G1 X43.962 Y119.285 E2.42284
G1 X42.810 Y120.183 E2.45816
G1 X41.592 Y120.817 E2.49139
G1 X40.323 Y121.208 E2.52351
G1 X39.019 Y121.371 E2.55528
G1 X37.704 Y121.318 E2.58713
G1 X36.400 Y121.058 E2.61928
G1 X35.135 Y120.604 E2.65179
G1 X33.937 Y119.968 E2.68460
G1 X32.834 Y119.166 E2.71757
G1 X31.856 Y118.213 E2.75062
G1 X31.026 Y117.125 E2.78371
G1 X30.369 Y115.918 E2.81695
G1 X29.939 Y114.689 E2.84843
G1 X29.939 Y70.031 E3.92858
G1 X30.332 Y68.776 E3.96039
G1 X30.940 Y67.538 E3.99376
G1 X31.724 Y66.407 E4.02703
G1 X32.657 Y65.405 E4.06015
G1 X33.715 Y64.553 E4.09301
G1 X34.872 Y63.871 E4.12549
G1 X36.101 Y63.378 E4.15752
G1 X37.376 Y63.089 E4.18913
G1 X38.675 Y63.021 E4.22059
G1 X39.978 Y63.187 E4.25238
G1 X41.177 Y63.576 E4.28285
G1 X41.273 Y63.607 E4.28530
G1 X41.543 Y62.982 F50000.000
G1 X42.927 Y63.741 F50000.000 E4.32347
G1 X44.256 Y64.821 E4.36490
G1 X45.507 Y66.250 E4.41085
G1 X46.655 Y68.051 E4.46249
G1 X47.647 Y70.193 E4.51959
G1 X47.406 Y115.031 E5.60410
G1 X46.577 Y116.915 E5.65389
G1 X45.568 Y118.509 E5.69951
G1 X44.426 Y119.782 E5.74088
G1 X43.178 Y120.755 E5.77915
G1 X41.850 Y121.446 E5.81536
G1 X40.465 Y121.873 E5.85041
G1 X39.048 Y122.050 E5.88496
G1 X37.623 Y121.992 E5.91944
G1 X36.219 Y121.712 E5.95409
G1 X34.860 Y121.225 E5.98899
G1 X33.577 Y120.544 E6.02413
G1 X32.397 Y119.685 E6.05943
G1 X31.347 Y118.663 E6.09486
G1 X30.456 Y117.494 E6.13042
G1 X29.748 Y116.193 E6.16624
G1 X29.262 Y114.805 E6.20183
G1 X29.262 Y69.928 E7.28726
G1 X29.701 Y68.524 E7.32284
G1 X30.355 Y67.194 E7.35869
G1 X31.195 Y65.982 E7.39436
G1 X32.195 Y64.908 E7.42984
G1 X33.329 Y63.995 E7.46506
G1 X34.572 Y63.262 E7.49997
G1 X35.899 Y62.729 E7.53455
G1 X37.283 Y62.416 E7.56886
G1 X38.700 Y62.341 E7.60319
G1 X40.127 Y62.524 E7.63798
G1 X41.446 Y62.951 E7.67152
G1 X41.543 Y62.982 E7.67398
G1 X41.600 Y63.657 F50000.000
G92 E0
G1 X53.889 Y126.475 F50000.000
G1 X54.320 Y126.044 F50000.000 E1.01485
G1 X55.285 Y126.043 E1.03838
G1 X54.011 Y127.318 E1.08230
G1 X54.133 Y128.161 E1.10308
G1 X56.250 Y126.044 E1.17606
G1 X57.215 Y126.044 E1.19957
G1 X54.255 Y129.004 E1.30160
G1 X54.376 Y129.847 E1.32235
G1 X58.179 Y126.044 E1.45344
G1 X59.145 Y126.043 E1.47696
G1 X54.568 Y130.620 E1.63471
G1 X54.769 Y131.385 E1.65399
G1 X60.110 Y126.044 E1.83808
G1 X61.074 Y126.044 E1.86159
G1 X54.968 Y132.150 E2.07206
G1 X55.168 Y132.915 E2.09133
G1 X62.039 Y126.044 E2.32816
G1 X63.004 Y126.043 E2.35169
G1 X55.367 Y133.680 E2.61492
G1 X55.568 Y134.445 E2.63420
G1 X63.969 Y126.044 E2.92377
G1 X64.934 Y126.044 E2.94728
G1 X55.796 Y135.182 E3.26223
G1 X56.071 Y135.872 E3.28033
G1 X65.898 Y126.044 E3.61907
G1 X66.863 Y126.043 E3.64259
G1 X56.344 Y136.563 E4.00517
G1 X56.619 Y137.254 E4.02330
G1 X67.829 Y126.044 E4.40969
G1 X68.793 Y126.044 E4.43319
G1 X56.892 Y137.945 E4.84339
G1 X57.166 Y138.636 E4.86150
G1 X69.758 Y126.043 E5.29554
G1 X70.723 Y126.043 E5.31904
G1 X57.439 Y139.327 E5.77689
G1 X57.765 Y139.967 E5.79440
G1 X71.688 Y126.044 E6.27430
G1 X72.652 Y126.044 E6.29781
G1 X58.109 Y140.587 E6.79909
G1 X58.453 Y141.208 E6.81638
